outputs/icons/communication/call_back_sharp.svg

<svg xmlns="http://www.w3.org/2000/svg" width="1200" height="1200" fill="none"><g fill="#000" clip-path="url(#a)"><path d="m731.57 720-126 125a807.2 807.2 0 0 1-300.001-300l125-126c11.5-12 16.5-28.5 13.5-45l-37.5-184c-4.5-23-25-40-49-40h-207.5c-28 0-51.5 23.5-50 51.5 8.5 144.5 52.5 280 121.5 398.5 79 136.5 192.5 249.5 328.501 328.5 118.5 68.5 254 113 398.5 121.5 28 1.5 51.5-22 51.5-50V792.5c0-24-17-44.5-40-49L776.57 707c-16.5-3.5-33.5 1.5-45 13M742.525 98.495v67.125c165.75 0 300 134.25 300 300 0 39-7.5 76.5-21.375 110.625-10.125 25.125-42.375 31.875-61.5 12.75-10.125-10.125-14.25-25.5-8.625-39 10.875-25.875 16.5-54.75 16.5-84.375 0-124.125-100.875-225-225-225v67.125c0 16.875-20.25 25.125-32.25 13.5L605.65 216.62c-7.5-7.5-7.5-19.125 0-26.625l105-104.625c11.625-12 31.875-3.75 31.875 13.125"/></g><defs><clipPath id="a"><path fill="#fff" d="M0 0h1200v1200H0z"/></clipPath></defs></svg>

<svg width="1200" height="1200" viewBox="0 0 1200 1200" fill="none" xmlns="http://www.w3.org/2000/svg"><g clip-path="url(#clip0_5130_234)"><path d="M731.57 720L605.57 845C480.568 773.5 377.068 670 305.568 545L430.568 419C442.068 407 447.068 390.5 444.068 374L406.568 190C402.068 167 381.568 150 357.568 150H150.068C122.068 150 98.568 173.5 100.068 201.5C108.568 346 152.568 481.5 221.568 600C300.568 736.5 414.068 849.5 550.07 928.5C668.57 997 804.07 1041.5 948.57 1050C976.57 1051.5 1000.07 1028 1000.07 1000V792.5C1000.07 768.5 983.07 748 960.07 743.5L776.57 707C760.07 703.5 743.07 708.5 731.57 720Z" fill="#1D1E23"/><path d="M742.525 98.483V165.608C908.275 165.608 1042.525 299.858 1042.525 465.608C1042.525 504.61 1035.025 542.11 1021.15 576.235C1011.025 601.36 978.775 608.11 959.65 588.985C949.525 578.86 945.4 563.485 951.025 549.985C961.9 524.11 967.525 495.233 967.525 465.608C967.525 341.483 866.65 240.608 742.525 240.608V307.733C742.525 324.608 722.275 332.858 710.275 321.233L605.65 216.608C598.15 209.108 598.15 197.483 605.65 189.983L710.65 85.358C722.275 73.358 742.525 81.608 742.525 98.483Z" fill="#1D1E23"/></g><defs><clipPath id="clip0_5130_234"><path width="24" fill="white" d="M0 0H1200V1200H0V0z"/></clipPath></defs></svg>
